X:73
T: Nachtigall als Warnerin
N: Q0137H
O: Mitteleuropa, Deutschland (BRD) , Rheinland
R: Ballade, Allegorie; lyrisch (?)
M: 6/4
L: 1/8
K: C
G2 | E3EE2G4G2 | c4c2G4
G2 | A4AcB2B2d2 | d6c4
G2 | e4e2e2d2c2 | B4A2A4
A2 | B4B2d4d2 | d6c2z2

@@@ Tune index: 1571
